icon-themes/sifr_svg/cmd/sc_wrapcontour.svg

<svg viewBox="0 0 16 16" xmlns="http://www.w3.org/2000/svg"><g fill="#555753"><path d="m1 1v2h14v-2zm0 3v2h6v-2zm10 0-4 4 4 4 4-4zm0 1 3 3-3 3-3-3zm-10 2v2h5v-2zm0 3v2h6v-2zm0 3v2h14v-2z"/><path d="m11 5-3 3 3 3 3-3z" opacity=".35"/></g></svg>

<svg xmlns="http://www.w3.org/2000/svg" viewBox="0 0 16 16">
  <path
     style="fill:#555753"
     d="M 1 1 L 1 3 L 15 3 L 15 1 L 1 1 z M 1 4 L 1 6 L 7 6 L 7 4 L 1 4 z M 11 4 L 7 8 L 11 12 L 15 8 L 11 4 z M 11 5 L 14 8 L 11 11 L 8 8 L 11 5 z M 1 7 L 1 9 L 6 9 L 6 7 L 1 7 z M 1 10 L 1 12 L 7 12 L 7 10 L 1 10 z M 1 13 L 1 15 L 15 15 L 15 13 L 1 13 z "
     />
  <path
     style="opacity:0.35;fill:#555753"
     d="M 11 5 L 8 8 L 11 11 L 14 8 L 11 5 z "
     />
</svg>
